assets/img/leetcode.svg

<?xml version="1.0" encoding="UTF-8" standalone="no"?>
<svg
   height="58"
   viewBox="0 0 24 24"
   width="58"
   id="leetcode"
   version="1.1"
   sodipodi:docname="leetcode.svg"
   inkscape:version="1.3.2 (1:1.3.2+202311252150+091e20ef0f)"
   xmlns:inkscape="http://www.inkscape.org/namespaces/inkscape"
   xmlns:sodipodi="http://sodipodi.sourceforge.net/DTD/sodipodi-0.dtd"
   xmlns="http://www.w3.org/2000/svg"
   xmlns:svg="http://www.w3.org/2000/svg">
  <defs
     id="defs3" />
  <sodipodi:namedview
     id="namedview3"
     pagecolor="#ffffff"
     bordercolor="#666666"
     borderopacity="1.0"
     inkscape:showpageshadow="2"
     inkscape:pageopacity="0.0"
     inkscape:pagecheckerboard="0"
     inkscape:deskcolor="#d1d1d1"
     inkscape:zoom="12.862069"
     inkscape:cx="28.961126"
     inkscape:cy="29"
     inkscape:window-width="1920"
     inkscape:window-height="946"
     inkscape:window-x="0"
     inkscape:window-y="27"
     inkscape:window-maximized="1"
     inkscape:current-layer="leetcode" />
  <path
     fill="#B3B1B0"
     d="M22 14.355c0-.742-.564-1.346-1.26-1.346H10.676c-.696 0-1.26.604-1.26 1.346s.563 1.346 1.26 1.346H20.74c.696.001 1.26-.603 1.26-1.346z"
     id="path1"
     style="fill:#000000;fill-opacity:1" />
  <path
     fill="#E7A41F"
     d="m3.482 18.187 4.313 4.361c.973.979 2.318 1.452 3.803 1.452 1.485 0 2.83-.512 3.805-1.494l2.588-2.637c.51-.514.492-1.365-.039-1.9-.531-.535-1.375-.553-1.884-.039l-2.676 2.607c-.462.467-1.102.662-1.809.662s-1.346-.195-1.81-.662l-4.298-4.363c-.463-.467-.696-1.15-.696-1.863 0-.713.233-1.357.696-1.824l4.285-4.38c.463-.467 1.116-.645 1.822-.645s1.346.195 1.809.662l2.676 2.606c.51.515 1.354.497 1.885-.038.531-.536.549-1.387.039-1.901l-2.588-2.636a4.994 4.994 0 0 0-2.392-1.33l-.034-.007 2.447-2.503c.512-.514.494-1.366-.037-1.901-.531-.535-1.376-.552-1.887-.038l-10.018 10.1C2.509 11.458 2 12.813 2 14.311c0 1.498.509 2.896 1.482 3.876z"
     id="path2"
     style="fill:#000000;fill-opacity:1" />
  <path
     fill="#070706"
     d="M8.115 22.814a2.109 2.109 0 0 1-.474-.361c-1.327-1.333-2.66-2.66-3.984-3.997-1.989-2.008-2.302-4.937-.786-7.32a6 6 0 0 1 .839-1.004L13.333.489c.625-.626 1.498-.652 2.079-.067.56.563.527 1.455-.078 2.066-.769.776-1.539 1.55-2.309 2.325-.041.122-.14.2-.225.287-.863.876-1.75 1.729-2.601 2.618-.111.116-.262.186-.372.305-1.423 1.423-2.863 2.83-4.266 4.272-1.135 1.167-1.097 2.938.068 4.127 1.308 1.336 2.639 2.65 3.961 3.974.067.067.136.132.204.198.468.303.474 1.25.183 1.671-.321.465-.74.75-1.333.728-.199-.006-.363-.086-.529-.179z"
     id="path3"
     style="fill:#000000;fill-opacity:1" />
</svg>

<?xml version="1.0" encoding="UTF-8" standalone="no"?>
<svg
   height="58"
   viewBox="0 0 24 24"
   width="58"
   id="leetcode"
   version="1.1"
   xmlns="http://www.w3.org/2000/svg"
   xmlns:svg="http://www.w3.org/2000/svg">
  <defs
     id="defs3" />
  <path
     fill="#B3B1B0"
     d="m 22,14.355 c 0,-0.742 -0.564,-1.346 -1.26,-1.346 H 10.676 c -0.696,0 -1.26,0.604 -1.26,1.346 0,0.742 0.563,1.346 1.26,1.346 H 20.74 C 21.436,15.702 22,15.098 22,14.355 Z"
     id="path1"
     style="fill:#000000;fill-opacity:1" />
  <path
     fill="#E7A41F"
     d="m 3.482,18.187 4.313,4.361 C 8.768,23.527 10.113,24 11.598,24 c 1.485,0 2.83,-0.512 3.805,-1.494 l 2.588,-2.637 c 0.51,-0.514 0.492,-1.365 -0.039,-1.9 -0.531,-0.535 -1.375,-0.553 -1.884,-0.039 l -2.676,2.607 c -0.462,0.467 -1.102,0.662 -1.809,0.662 -0.707,0 -1.346,-0.195 -1.81,-0.662 L 5.475,16.174 c -0.463,-0.467 -0.696,-1.15 -0.696,-1.863 0,-0.713 0.233,-1.357 0.696,-1.824 L 9.76,8.107 c 0.463,-0.467 1.116,-0.645 1.822,-0.645 0.706,0 1.346,0.195 1.809,0.662 l 2.676,2.606 c 0.51,0.515 1.354,0.497 1.885,-0.038 0.531,-0.536 0.549,-1.387 0.039,-1.901 L 15.403,6.155 A 4.994,4.994 0 0 0 13.011,4.825 L 12.977,4.818 15.424,2.315 C 15.936,1.801 15.918,0.949 15.387,0.414 14.856,-0.121 14.011,-0.138 13.5,0.376 L 3.482,10.476 C 2.509,11.458 2,12.813 2,14.311 c 0,1.498 0.509,2.896 1.482,3.876 z"
     id="path2"
     style="fill:#000000;fill-opacity:1" />
  <path
     fill="#070706"
     d="M 8.115,22.814 A 2.109,2.109 0 0 1 7.641,22.453 C 6.314,21.12 4.981,19.793 3.657,18.456 1.668,16.448 1.355,13.519 2.871,11.136 A 6,6 0 0 1 3.71,10.132 l 9.623,-9.643 c 0.625,-0.626 1.498,-0.652 2.079,-0.067 0.56,0.563 0.527,1.455 -0.078,2.066 -0.769,0.776 -1.539,1.55 -2.309,2.325 -0.041,0.122 -0.14,0.2 -0.225,0.287 -0.863,0.876 -1.75,1.729 -2.601,2.618 -0.111,0.116 -0.262,0.186 -0.372,0.305 -1.423,1.423 -2.863,2.83 -4.266,4.272 -1.135,1.167 -1.097,2.938 0.068,4.127 1.308,1.336 2.639,2.65 3.961,3.974 0.067,0.067 0.136,0.132 0.204,0.198 0.468,0.303 0.474,1.25 0.183,1.671 -0.321,0.465 -0.74,0.75 -1.333,0.728 C 8.445,22.987 8.281,22.907 8.115,22.814 Z"
     id="path3"
     style="fill:#000000;fill-opacity:1" />
</svg>
